%
(4001)
(T1  D=2.5 CR=0. TAPER=118DEG - ZMIN=-2.751 - DRILL)
N10 G90 G94 G17 G91.1
N15 G21
N20 G53 G0 Z12.
(DRILL2)
N25 M9
N30 T1 M6
N35 S1910 M3
N40 G54
N45 M8
N55 G0 X28.92 Y32.691
N60 G43 Z7.6 H1
N70 G0 Z4.6
N75 G98 G81 X28.92 Y32.691 Z-2.751 R4.6 F12.
N80 X43.816 Y41.291
N85 X100.112 Y51.483
N90 X136.112
N95 Y15.483
N100 X100.112
N105 X346.938 Y290.513
N110 X310.938
N115 Y254.512
N120 X346.938
N125 X426.392 Y272.109
N130 X411.496 Y263.509
N135 X443.349 Y222.573
N140 Y205.373
N145 X433.731 Y185.725
N150 X469.731
N155 X528.638 Y113.827
N160 X528.647 Y102.512
N165 Y79.512
N170 X528.638 Y64.827
N175 X515.68 Y53.183
N180 X479.68
N185 X470.638 Y64.827
N190 X470.647 Y79.512
N195 Y102.512
N200 X470.638 Y113.827
N205 X469.731 Y149.725
N210 X433.731
N215 X431.335 Y115.783
N220 Y91.783
N225 X400.335
N230 Y115.783
N235 X394.745 Y50.902
N240 X430.745
N245 Y14.902
N250 X394.745
N255 X362.467 Y17.3
N260 X347.571 Y8.7
N265 X316.763 Y82.227
N270 Y99.427
N275 X303.95 Y117.012
N280 X267.95
N285 X218.19 Y130.525
N290 X218.129 Y119.975
N295 Y96.975
N300 X218.19 Y81.525
N305 X226.936 Y50.337
N310 X260.984 Y41.291
N315 X275.88 Y32.691
N320 X226.936 Y14.337
N325 X190.936
N330 Y50.337
N335 X160.19 Y81.525
N340 X160.129 Y96.975
N345 Y119.975
N350 X160.19 Y130.525
N355 X172.875 Y152.715
N360 X136.875
N365 X126.788 Y126.016
N370 Y102.016
N375 X95.788
N380 Y126.016
N385 X172.875 Y188.715
N390 X136.875
N395 X138.549 Y205.373
N400 Y222.573
N405 X179.432 Y272.109
N410 X194.328 Y263.509
N415 X225.502 Y277.845
N420 X261.502
N425 X225.502 Y241.845
N430 X261.502
N435 X243.7 Y218.248
N440 X243.411 Y205.807
N445 Y182.807
N450 X243.7 Y169.248
N455 X267.95 Y153.012
N460 X303.95
N465 X301.7 Y169.248
N470 X301.411 Y182.807
N475 Y205.807
N480 X301.7 Y218.248
N485 X332.724 Y175.439
N490 Y199.439
N495 X363.724
N500 Y175.439
N505 X479.68 Y17.183
N510 X515.68
N515 X551.933 Y17.3
N520 X566.829 Y8.7
N525 G80
N530 G0 Z7.6
N540 M9
N545 G53 Z0.
N550 M30
%
