%
(4002)
(T1  D=2.5 CR=0. TAPER=118DEG - ZMIN=-2.751 - DRILL)
N10 G90 G94 G17 G91.1
N15 G21
N20 G53 G0 Z12.
(DRILL3)
N25 M9
N30 T1 M6
N35 S1910 M3
N40 G54
N45 M8
N55 G0 X563.881 Y20.794
N60 G43 Z7.6 H1
N70 G0 Z4.6
N75 G98 G81 X563.881 Y20.794 Z-2.751 R4.6 F10.
N80 X350.519
N85 X263.932 Y29.197
N90 X307.763 Y90.827
N95 X452.349 Y213.973
N100 X414.444 Y275.603
N105 X191.38
N110 X147.549 Y213.973
N115 X40.868 Y29.197
N120 G80
N125 G0 Z7.6
N135 M9
N140 G53 Z0.
N145 M30
%
