%
(4003)
(T2  D=6.35 CR=0. - ZMIN=-0.9 - FLAT END MILL)
N10 G90 G94 G17 G91.1
N15 G21
N20 G53 G0 Z12.
(2D CONTOUR2)
N25 M9
N30 T2 M6
N35 S5514 M3
N40 G54
N45 M8
N55 G0 X286.509 Y271.974
N60 G43 Z7.6 H2
N65 G0 Z6.6
N70 G1 Z2.6 F542.58
N75 Z-0.265
N80 X286.517 Y271.975 Z-0.364
N85 X286.54 Z-0.461
N90 X286.579 Y271.976 Z-0.553
N95 X286.631 Y271.977 Z-0.638
N100 X286.695 Y271.979 Z-0.714
N105 X286.771 Y271.981 Z-0.779
N110 X286.856 Y271.983 Z-0.831
N115 X286.948 Y271.985 Z-0.869
N120 X287.045 Y271.988 Z-0.892
N125 X287.144 Y271.99 Z-0.9
N130 X287.779 Y272.006
N135 G3 X288.398 Y272.656 I-0.016 J0.635
N140 X276.75 Y272.513 I-5.823 J-0.143
N145 X288.4 I5.825 J0.
N150 X288.398 Y272.656 I-5.825 J0.
N155 X287.748 Y273.275 I-0.635 J-0.016
N160 G1 X287.113 Y273.26
N165 X287.014 Y273.257 Z-0.892
N170 X286.917 Y273.255 Z-0.869
N175 X286.825 Y273.253 Z-0.831
N180 X286.74 Y273.25 Z-0.779
N185 X286.664 Y273.249 Z-0.714
N190 X286.599 Y273.247 Z-0.638
N195 X286.547 Y273.246 Z-0.553
N200 X286.509 Y273.245 Z-0.461
N205 X286.486 Y273.244 Z-0.364
N210 X286.478 Z-0.265
N215 G0 Z6.6
N220 X180.133 Y32.848
N225 G1 Z2.6 F542.58
N230 Z-0.265
N235 G18 G2 X180.768 Z-0.9 I0.635 K0.
N240 G1 X181.403
N245 G17 G3 X182.038 Y33.483 I0. J0.635
N250 X170.388 I-5.825 J0.
N255 X182.038 I5.825 J0.
N260 X181.403 Y34.118 I-0.635 J0.
N265 G1 X180.768
N270 G18 G3 X180.133 Z-0.265 I0. K0.635
N275 G0 Z6.6
N280 X468.948 Y30.145
N285 G1 Z2.6 F542.58
N290 Z-0.265
N295 G2 X469.583 Z-0.9 I0.635 K0.
N300 G1 X470.218
N305 G17 G3 X470.853 Y30.779 I0. J0.635
N310 X459.203 I-5.825 J0.
N315 X470.853 I5.825 J0.
N320 X470.218 Y31.414 I-0.635 J0.
N325 G1 X469.583
N330 G18 G3 X468.948 Z-0.265 I0. K0.635
N335 G0 Z7.6
N340 G17
N345 M9
N350 G53 G0 Z0.
N355 M30
%
