%
(4004)
(T2  D=6.35 CR=0. - ZMIN=-0.9 - FLAT END MILL)
N10 G90 G94 G17 G91.1
N15 G21
N20 G53 G0 Z12.
(2D CONTOUR3)
N25 M9
N30 T2 M6
N35 S5514 M3
N40 G54
N45 M8
N55 G0 X299.183 Y90.192
N60 G43 Z7.6 H2
N65 G0 Z6.6
N70 G1 Z2.6 F542.58
N75 Z-0.265
N80 G18 G2 X299.818 Z-0.9 I0.635 K0.
N85 G1 X300.453
N90 G17 G3 X301.088 Y90.827 I0. J0.635
N95 X290.438 I-5.325 J0.
N100 X301.088 I5.325 J0.
N105 X300.453 Y91.462 I-0.635 J0.
N110 G1 X299.818
N115 G18 G3 X299.183 Z-0.265 I0. K0.635
N120 G0 Z6.6
N125 X347.939 Y30.552
N130 G1 Z2.6 F542.58
N135 Z-0.265
N140 G2 X348.574 Z-0.9 I0.635 K0.
N145 G1 X349.209
N150 G17 G3 X349.844 Y31.187 I0. J0.635
N155 X339.194 I-5.325 J0.
N160 X349.844 I5.325 J0.
N165 X349.209 Y31.822 I-0.635 J0.
N170 G1 X348.574
N175 G18 G3 X347.939 Z-0.265 I0. K0.635
N180 G0 Z6.6
N185 X261.352 Y18.17
N190 G1 Z2.6 F542.58
N195 Z-0.265
N200 G2 X261.987 Z-0.9 I0.635 K0.
N205 G1 X262.622
N210 G17 G3 X263.257 Y18.805 I0. J0.635
N215 X257.932 Y24.13 I-5.325 J0.
N220 Y13.48 I0. J-5.325
N225 X263.257 Y18.805 I0. J5.325
N230 X262.622 Y19.44 I-0.635 J0.
N235 G1 X261.987
N240 G18 G3 X261.352 Z-0.265 I0. K0.635
N245 G0 Z6.6
N250 X50.288 Y18.17
N255 G1 Z2.6 F542.58
N260 Z-0.265
N265 G2 X50.923 Z-0.9 I0.635 K0.
N270 G1 X51.558
N275 G17 G3 X52.193 Y18.805 I0. J0.635
N280 X41.543 I-5.325 J0.
N285 X52.193 I5.325 J0.
N290 X51.558 Y19.44 I-0.635 J0.
N295 G1 X50.923
N300 G18 G3 X50.288 Z-0.265 I0. K0.635
N305 G0 Z6.6
N310 X162.984 Y213.422
N315 G1 Z2.6 F542.58
N320 Z-0.265
N325 X162.991 Z-0.364
N330 X163.015 Y213.423 Z-0.461
N335 X163.053 Y213.424 Z-0.553
N340 X163.105 Y213.425 Z-0.638
N345 X163.169 Y213.427 Z-0.714
N350 X163.245 Y213.429 Z-0.779
N355 X163.33 Y213.431 Z-0.831
N360 X163.422 Y213.433 Z-0.869
N365 X163.519 Y213.435 Z-0.892
N370 X163.618 Y213.438 Z-0.9
N375 X164.253 Y213.453
N380 G17 G3 X164.872 Y214.104 I-0.016 J0.635
N385 X154.224 Y213.973 I-5.323 J-0.131
N390 X159.549 Y208.648 I5.325 J0.
N395 X164.872 Y214.104 I0. J5.325
N400 X164.222 Y214.723 I-0.635 J-0.016
N405 G1 X163.587 Y214.707
N410 X163.488 Y214.705 Z-0.892
N415 X163.391 Y214.703 Z-0.869
N420 X163.299 Y214.7 Z-0.831
N425 X163.214 Y214.698 Z-0.779
N430 X163.138 Y214.696 Z-0.714
N435 X163.074 Y214.695 Z-0.638
N440 X163.022 Y214.693 Z-0.553
N445 X162.983 Z-0.461
N450 X162.96 Y214.692 Z-0.364
N455 X162.952 Z-0.265
N460 G0 Z6.6
N465 X200.8 Y285.36
N470 G1 Z2.6 F542.58
N475 Z-0.265
N480 G18 G2 X201.435 Z-0.9 I0.635 K0.
N485 G1 X202.07
N490 G17 G3 X202.705 Y285.995 I0. J0.635
N495 X192.055 I-5.325 J0.
N500 X197.38 Y280.67 I5.325 J0.
N505 X202.705 Y285.995 I0. J5.325
N510 X202.07 Y286.63 I-0.635 J0.
N515 G1 X201.435
N520 G18 G3 X200.8 Z-0.265 I0. K0.635
N525 G0 Z6.6
N530 X411.879 Y285.444
N535 G1 Z2.6 F542.58
N540 Z-0.265
N545 X411.886 Z-0.364
N550 X411.91 Y285.445 Z-0.461
N555 X411.948 Y285.446 Z-0.553
N560 X412. Y285.447 Z-0.638
N565 X412.064 Y285.449 Z-0.714
N570 X412.14 Y285.451 Z-0.779
N575 X412.225 Y285.453 Z-0.831
N580 X412.317 Y285.455 Z-0.869
N585 X412.414 Y285.457 Z-0.892
N590 X412.513 Y285.46 Z-0.9
N595 X413.148 Y285.475
N600 G17 G3 X413.767 Y286.126 I-0.016 J0.635
N605 X403.121 Y285.864 I-5.323 J-0.131
N610 X413.769 Y285.995 I5.323 J0.131
N615 X413.767 Y286.126 I-5.325 J0.
N620 X413.117 Y286.745 I-0.635 J-0.016
N625 G1 X412.482 Y286.729
N630 X412.383 Y286.727 Z-0.892
N635 X412.286 Y286.724 Z-0.869
N640 X412.194 Y286.722 Z-0.831
N645 X412.109 Y286.72 Z-0.779
N650 X412.033 Y286.718 Z-0.714
N655 X411.969 Y286.717 Z-0.638
N660 X411.917 Y286.715 Z-0.553
N665 X411.878 Z-0.461
N670 X411.855 Y286.714 Z-0.364
N675 X411.847 Z-0.265
N680 G0 Z6.6
N685 X467.769 Y213.338
N690 G1 Z2.6 F542.58
N695 Z-0.265
N700 G18 G2 X468.404 Z-0.9 I0.635 K0.
N705 G1 X469.039
N710 G17 G3 X469.674 Y213.973 I0. J0.635
N715 X464.349 Y219.298 I-5.325 J0.
N720 Y208.648 I0. J-5.325
N725 X469.674 Y213.973 I0. J5.325
N730 X469.039 Y214.608 I-0.635 J0.
N735 G1 X468.404
N740 G18 G3 X467.769 Z-0.265 I0. K0.635
N745 G0 Z6.6
N750 X573.301 Y30.552
N755 G1 Z2.6 F542.58
N760 Z-0.265
N765 G2 X573.936 Z-0.9 I0.635 K0.
N770 G1 X574.571
N775 G17 G3 X575.206 Y31.187 I0. J0.635
N780 X564.556 I-5.325 J0.
N785 X575.206 I5.325 J0.
N790 X574.571 Y31.822 I-0.635 J0.
N795 G1 X573.936
N800 G18 G3 X573.301 Z-0.265 I0. K0.635
N805 G0 Z7.6
N810 G17
N815 M9
N820 G53 G0 Z0.
N825 M30
%
