%
(4005)
(T2  D=6.35 CR=0. - ZMIN=-0.9 - FLAT END MILL)
N10 G90 G94 G17 G91.1
N15 G21
N20 G53 G0 Z12.
(2D CONTOUR4)
N25 M9
N30 T2 M6
N35 S5514 M3
N40 G54
N45 M8
N55 G0 X460.037 Y302.81
N60 G43 Z7.6 H2
N65 G0 Z6.6
N70 G1 Z2.6 F542.58
N75 Z-0.265
N80 X460.03 Y302.814 Z-0.364
N85 X460.01 Y302.825 Z-0.461
N90 X459.977 Y302.845 Z-0.553
N95 X459.932 Y302.871 Z-0.638
N100 X459.876 Y302.903 Z-0.714
N105 X459.81 Y302.941 Z-0.779
N110 X459.737 Y302.983 Z-0.831
N115 X459.657 Y303.029 Z-0.869
N120 X459.573 Y303.078 Z-0.892
N125 X459.487 Y303.127 Z-0.9
N130 X458.937 Y303.445
N135 G3 X458.07 Y303.212 I-0.317 J-0.55
N140 G1 X305.67 Y39.248
N145 G2 X300.17 I-2.75 J1.587
N150 G1 X147.77 Y303.212
N155 G3 X146.903 Y303.445 I-0.55 J-0.318
N160 G1 X146.353 Y303.127
N165 X146.267 Y303.078 Z-0.892
N170 X146.183 Y303.029 Z-0.869
N175 X146.103 Y302.983 Z-0.831
N180 X146.03 Y302.941 Z-0.779
N185 X145.964 Y302.903 Z-0.714
N190 X145.908 Y302.871 Z-0.638
N195 X145.863 Y302.845 Z-0.553
N200 X145.83 Y302.825 Z-0.461
N205 X145.81 Y302.814 Z-0.364
N210 X145.803 Y302.81 Z-0.265
N215 G0 Z6.6
N220 X-4.717 Y1.99
N225 G1 Z2.6 F542.58
N230 Z-0.265
N235 X-4.71 Y1.986 Z-0.364
N240 X-4.69 Y1.975 Z-0.461
N245 X-4.657 Y1.955 Z-0.553
N250 X-4.612 Y1.929 Z-0.638
N255 X-4.556 Y1.897 Z-0.714
N260 X-4.49 Y1.859 Z-0.779
N265 X-4.417 Y1.817 Z-0.831
N270 X-4.337 Y1.771 Z-0.869
N275 X-4.253 Y1.722 Z-0.892
N280 X-4.167 Y1.673 Z-0.9
N285 X-3.617 Y1.355
N290 G3 X-2.75 Y1.587 I0.317 J0.55
N295 G1 X149.65 Y265.552
N300 G2 X155.15 I2.75 J-1.587
N305 G1 X304.8 Y6.35
N310 X454.45 Y265.552
N315 G2 X459.95 I2.75 J-1.587
N320 G1 X612.35 Y1.587
N325 G3 X613.217 Y1.355 I0.55 J0.317
N330 G1 X613.767 Y1.673
N335 X613.853 Y1.722 Z-0.892
N340 X613.937 Y1.771 Z-0.869
N345 X614.017 Y1.817 Z-0.831
N350 X614.09 Y1.859 Z-0.779
N355 X614.156 Y1.897 Z-0.714
N360 X614.212 Y1.929 Z-0.638
N365 X614.257 Y1.955 Z-0.553
N370 X614.29 Y1.975 Z-0.461
N375 X614.31 Y1.986 Z-0.364
N380 X614.317 Y1.99 Z-0.265
N385 G0 Z7.6
N395 M9
N400 G53 Z0.
N405 M30
%
