%
(4006)
(T2  D=6.35 CR=0. - ZMIN=-1.4 - FLAT END MILL)
N10 G90 G94 G17 G91.1
N15 G21
N20 G53 G0 Z12.
(2D CONTOUR5)
N25 M9
N30 T2 M6
N35 S5514 M3
N40 G54
N45 M8
N55 G0 X322.605 Y68.751
N60 G43 Z7.6 H2
N65 G0 Z6.6
N70 G1 Z2.6 F542.58
N75 Z-0.765
N80 G19 G3 Y69.386 Z-1.4 J0.635 K0.
N85 G1 Y70.021
N90 G17 G3 X321.97 Y70.656 I-0.635 J0.
N95 G1 X283.87
N100 G3 X283.235 Y70.021 I0. J-0.635
N105 G1 Y69.386
N110 G19 G2 Y68.751 Z-0.765 J0. K0.635
N115 G1 X290.467 Y31.006
N120 X290.46 Y31.009 Z-0.864
N125 X290.44 Y31.021 Z-0.961
N130 X290.407 Y31.04 Z-1.053
N135 X290.362 Y31.066 Z-1.138
N140 X290.306 Y31.099 Z-1.214
N145 X290.24 Y31.136 Z-1.279
N150 X290.167 Y31.179 Z-1.331
N155 X290.087 Y31.225 Z-1.369
N160 X290.003 Y31.273 Z-1.392
N165 X289.917 Y31.323 Z-1.4
N170 X289.367 Y31.641
N175 G17 G3 X288.5 Y31.408 I-0.318 J-0.55
N180 G1 X269.45 Y-1.587
N185 G3 X269.682 Y-2.455 I0.55 J-0.317
N190 G1 X270.232 Y-2.772
N195 X270.318 Y-2.822 Z-1.392
N200 X270.402 Y-2.871 Z-1.369
N205 X270.482 Y-2.917 Z-1.331
N210 X270.555 Y-2.959 Z-1.279
N215 X270.621 Y-2.997 Z-1.214
N220 X270.677 Y-3.029 Z-1.138
N225 X270.722 Y-3.055 Z-1.053
N230 X270.755 Y-3.074 Z-0.961
N235 X270.775 Y-3.086 Z-0.864
N240 X270.782 Y-3.09 Z-0.765
N245 G0 Z6.6
N250 X338.818
N255 G1 Z2.6 F542.58
N260 Z-0.765
N265 X338.825 Y-3.086 Z-0.864
N270 X338.845 Y-3.074 Z-0.961
N275 X338.878 Y-3.055 Z-1.053
N280 X338.923 Y-3.029 Z-1.138
N285 X338.979 Y-2.997 Z-1.214
N290 X339.045 Y-2.959 Z-1.279
N295 X339.118 Y-2.917 Z-1.331
N300 X339.198 Y-2.871 Z-1.369
N305 X339.282 Y-2.822 Z-1.392
N310 X339.368 Y-2.772 Z-1.4
N315 X339.918 Y-2.455
N320 G3 X340.15 Y-1.587 I-0.318 J0.55
N325 G1 X321.1 Y31.408
N330 G3 X320.233 Y31.641 I-0.55 J-0.318
N335 G1 X319.683 Y31.323
N340 X319.597 Y31.273 Z-1.392
N345 X319.513 Y31.225 Z-1.369
N350 X319.433 Y31.179 Z-1.331
N355 X319.36 Y31.136 Z-1.279
N360 X319.294 Y31.099 Z-1.214
N365 X319.238 Y31.066 Z-1.138
N370 X319.193 Y31.04 Z-1.053
N375 X319.16 Y31.021 Z-0.961
N380 X319.14 Y31.009 Z-0.864
N385 X319.133 Y31.006 Z-0.765
N390 G0 Z6.6
N395 X437.515 Y236.049
N400 G1 Z2.6 F542.58
N405 Z-0.765
N410 G19 G2 Y235.414 Z-1.4 J-0.635 K0.
N415 G1 Y234.779
N420 G17 G3 X438.15 Y234.144 I0.635 J0.
N425 G1 X476.25
N430 G3 X476.885 Y234.779 I0. J0.635
N435 G1 Y235.414
N440 G19 G3 Y236.049 Z-0.765 J0. K0.635
N445 G0 Z6.6
N450 X421.302 Y307.89
N455 G1 Z2.6 F542.58
N460 Z-0.765
N465 X421.295 Y307.886 Z-0.864
N470 X421.275 Y307.874 Z-0.961
N475 X421.242 Y307.855 Z-1.053
N480 X421.197 Y307.829 Z-1.138
N485 X421.141 Y307.797 Z-1.214
N490 X421.075 Y307.759 Z-1.279
N495 X421.002 Y307.717 Z-1.331
N500 X420.922 Y307.671 Z-1.369
N505 X420.838 Y307.622 Z-1.392
N510 X420.752 Y307.572 Z-1.4
N515 X420.202 Y307.255
N520 G17 G3 X419.97 Y306.387 I0.318 J-0.55
N525 G1 X439.02 Y273.391
N530 G3 X439.887 Y273.159 I0.55 J0.318
N535 G1 X440.437 Y273.477
N540 X440.523 Y273.526 Z-1.392
N545 X440.607 Y273.575 Z-1.369
N550 X440.687 Y273.621 Z-1.331
N555 X440.76 Y273.663 Z-1.279
N560 X440.826 Y273.701 Z-1.214
N565 X440.882 Y273.733 Z-1.138
N570 X440.927 Y273.759 Z-1.053
N575 X440.96 Y273.779 Z-0.961
N580 X440.98 Y273.79 Z-0.864
N585 X440.987 Y273.794 Z-0.765
N590 G0 Z6.6
N595 X164.853
N600 G1 Z2.6 F542.58
N605 Z-0.765
N610 X164.86 Y273.79 Z-0.864
N615 X164.88 Y273.779 Z-0.961
N620 X164.913 Y273.759 Z-1.053
N625 X164.958 Y273.733 Z-1.138
N630 X165.014 Y273.701 Z-1.214
N635 X165.08 Y273.663 Z-1.279
N640 X165.153 Y273.621 Z-1.331
N645 X165.233 Y273.575 Z-1.369
N650 X165.317 Y273.526 Z-1.392
N655 X165.403 Y273.477 Z-1.4
N660 X165.953 Y273.159
N665 G3 X166.82 Y273.391 I0.317 J0.55
N670 G1 X185.87 Y306.387
N675 G3 X185.638 Y307.255 I-0.55 J0.318
N680 G1 X185.088 Y307.572
N685 X185.002 Y307.622 Z-1.392
N690 X184.918 Y307.671 Z-1.369
N695 X184.838 Y307.717 Z-1.331
N700 X184.765 Y307.759 Z-1.279
N705 X184.699 Y307.797 Z-1.214
N710 X184.643 Y307.829 Z-1.138
N715 X184.598 Y307.855 Z-1.053
N720 X184.565 Y307.874 Z-0.961
N725 X184.545 Y307.886 Z-0.864
N730 X184.538 Y307.89 Z-0.765
N735 G0 Z6.6
N740 X132.715 Y236.049
N745 G1 Z2.6 F542.58
N750 Z-0.765
N755 G19 G2 Y235.414 Z-1.4 J-0.635 K0.
N760 G1 Y234.779
N765 G17 G3 X133.35 Y234.144 I0.635 J0.
N770 G1 X171.45
N775 G3 X172.085 Y234.779 I0. J0.635
N780 G1 Y235.414
N785 G19 G3 Y236.049 Z-0.765 J0. K0.635
N790 G0 Z6.6
N795 X34.018 Y-3.09
N800 G1 Z2.6 F542.58
N805 Z-0.765
N810 X34.025 Y-3.086 Z-0.864
N815 X34.045 Y-3.074 Z-0.961
N820 X34.078 Y-3.055 Z-1.053
N825 X34.123 Y-3.029 Z-1.138
N830 X34.179 Y-2.997 Z-1.214
N835 X34.245 Y-2.959 Z-1.279
N840 X34.318 Y-2.917 Z-1.331
N845 X34.398 Y-2.871 Z-1.369
N850 X34.482 Y-2.822 Z-1.392
N855 X34.568 Y-2.772 Z-1.4
N860 X35.118 Y-2.455
N865 G17 G3 X35.35 Y-1.587 I-0.318 J0.55
N870 G1 X16.3 Y31.408
N875 G3 X15.433 Y31.641 I-0.55 J-0.318
N880 G1 X14.883 Y31.323
N885 X14.797 Y31.273 Z-1.392
N890 X14.713 Y31.225 Z-1.369
N895 X14.633 Y31.179 Z-1.331
N900 X14.56 Y31.136 Z-1.279
N905 X14.494 Y31.099 Z-1.214
N910 X14.438 Y31.066 Z-1.138
N915 X14.393 Y31.04 Z-1.053
N920 X14.36 Y31.021 Z-0.961
N925 X14.34 Y31.009 Z-0.864
N930 X14.333 Y31.006 Z-0.765
N935 G0 Z6.6
N940 X595.267
N945 G1 Z2.6 F542.58
N950 Z-0.765
N955 X595.26 Y31.009 Z-0.864
N960 X595.24 Y31.021 Z-0.961
N965 X595.207 Y31.04 Z-1.053
N970 X595.162 Y31.066 Z-1.138
N975 X595.106 Y31.099 Z-1.214
N980 X595.04 Y31.136 Z-1.279
N985 X594.967 Y31.179 Z-1.331
N990 X594.887 Y31.225 Z-1.369
N995 X594.803 Y31.273 Z-1.392
N1000 X594.717 Y31.323 Z-1.4
N1005 X594.167 Y31.641
N1010 G3 X593.3 Y31.408 I-0.318 J-0.55
N1015 G1 X574.25 Y-1.587
N1020 G3 X574.482 Y-2.455 I0.55 J-0.317
N1025 G1 X575.032 Y-2.772
N1030 X575.118 Y-2.822 Z-1.392
N1035 X575.202 Y-2.871 Z-1.369
N1040 X575.282 Y-2.917 Z-1.331
N1045 X575.355 Y-2.959 Z-1.279
N1050 X575.421 Y-2.997 Z-1.214
N1055 X575.477 Y-3.029 Z-1.138
N1060 X575.522 Y-3.055 Z-1.053
N1065 X575.555 Y-3.074 Z-0.961
N1070 X575.575 Y-3.086 Z-0.864
N1075 X575.582 Y-3.09 Z-0.765
N1080 G0 Z7.6
N1090 M9
N1095 G53 Z0.
N1100 M30
%
